X:016 
T:Berries on the Bush* (polka)  
F:file ID: cre.5/016berries
B:CRE5.086 (gan ainm)
M:2/4
L:1/8
Q:120
R:polka
K:G
A|B2 BA|GE ED|FA AB/A/|GB d2|
B2BA|GEED|FA AB/A/|G2 GA||
Bd de|dB gB|dB gB|BA A2|
Bd de|dB gB|dB AB/A/|G2G ||

%%%

